X: 3850
T: Black Nag, The
R: jig
M: 6/8
K: Aminor
|:E|AGA BAB|cBc Bcd|edc BcB|A3 A2:|
|:A|BGE BGE|BGE Bcd|ecA ecA|efe edc|
BGE BGE|BGE Bcd|edc BcB|A3 A2:|

